src/lib/packages/icons/src/assets/line/shield-heart.svg

<svg width="24" height="24" viewBox="0 0 24 24" fill="none" xmlns="http://www.w3.org/2000/svg">
<path d="M12 22.7501C11.92 22.7501 11.8399 22.7371 11.7629 22.7111C10.1739 22.1811 2.25 19.1221 2.25 10.8881V5.00012C2.25 4.64312 2.50203 4.33401 2.85303 4.26501C7.73303 3.28901 9.46305 2.43111 11.6541 1.34411C11.8661 1.23911 12.146 1.22519 12.356 1.33019C14.515 2.41919 16.2209 3.27901 21.1479 4.26501C21.4989 4.33501 21.751 4.64312 21.751 5.00012V10.889C21.751 19.123 13.827 22.182 12.238 22.712C12.16 22.737 12.08 22.7501 12 22.7501ZM3.75 5.61218V10.8881C3.75 17.7531 10.168 20.5482 12 21.2052C13.832 20.5482 20.25 17.7521 20.25 10.8881V5.61218C15.827 4.68618 13.9679 3.81901 12.0149 2.83801C9.93789 3.86501 8.135 4.69618 3.75 5.61218ZM12 16.5001C11.895 16.5001 11.7889 16.4782 11.6909 16.4342C11.5379 16.3652 7.92689 14.7021 7.33789 11.6881C7.09989 10.4691 7.33606 9.31316 7.98706 8.51916C8.52906 7.85716 9.30307 7.50509 10.2261 7.50109C10.2311 7.50109 10.235 7.50109 10.24 7.50109C11.01 7.50109 11.589 7.81816 11.999 8.21716C12.409 7.81816 12.9881 7.50109 13.7571 7.50109C13.7611 7.50109 13.766 7.50109 13.771 7.50109C14.695 7.50509 15.469 7.85718 16.011 8.51818C16.661 9.31218 16.8989 10.4671 16.6599 11.6881C16.0709 14.7021 12.4609 16.3652 12.3069 16.4342C12.2109 16.4782 12.105 16.5001 12 16.5001ZM10.24 9.00012C10.238 9.00012 10.2371 9.00012 10.2351 9.00012C9.76711 9.00212 9.40095 9.16013 9.14795 9.46813C8.78695 9.90913 8.66104 10.632 8.81104 11.399C9.16604 13.217 11.211 14.4821 11.999 14.9091C12.787 14.4831 14.832 13.218 15.187 11.399C15.337 10.63 15.2111 9.90816 14.8501 9.46716C14.5971 9.15916 14.232 9.00214 13.762 8.99914C13.76 8.99914 13.7591 8.99914 13.7571 8.99914C13.0211 8.99914 12.736 9.7291 12.707 9.8131C12.6 10.1111 12.315 10.3131 11.999 10.3131C11.997 10.3131 11.994 10.3131 11.991 10.3131C11.672 10.3101 11.3881 10.108 11.2871 9.80505C11.2621 9.73005 10.978 9.00012 10.24 9.00012ZM15.925 11.5431H15.9351H15.925Z" fill="currentColor"/>
</svg>

<svg xmlns="http://www.w3.org/2000/svg" width="24" height="24" fill="none"><path fill="currentColor" d="M12 22.75a.741.741 0 0 1-.237-.039c-1.59-.53-9.513-3.589-9.513-11.823V5c0-.357.252-.666.603-.735 4.88-.976 6.61-1.834 8.801-2.92a.822.822 0 0 1 .702-.015c2.159 1.09 3.865 1.949 8.792 2.935A.75.75 0 0 1 21.75 5v5.889c0 8.234-7.924 11.293-9.513 11.823a.78.78 0 0 1-.238.038ZM3.75 5.612v5.276c0 6.865 6.418 9.66 8.25 10.317 1.832-.657 8.25-3.453 8.25-10.317V5.612c-4.423-.926-6.282-1.793-8.235-2.774-2.077 1.027-3.88 1.858-8.265 2.774ZM12 16.5a.757.757 0 0 1-.31-.066c-.152-.069-3.763-1.732-4.352-4.746-.238-1.219-.002-2.375.65-3.169.541-.662 1.315-1.014 2.238-1.018h.014c.77 0 1.349.317 1.759.716.41-.399.99-.716 1.758-.716h.014c.924.004 1.698.356 2.24 1.017.65.794.888 1.95.649 3.17-.59 3.014-4.2 4.677-4.353 4.746A.74.74 0 0 1 12 16.5ZM10.24 9h-.005c-.468.002-.834.16-1.087.468-.361.441-.487 1.164-.337 1.931.355 1.818 2.4 3.083 3.188 3.51.788-.426 2.833-1.691 3.188-3.51.15-.769.024-1.49-.337-1.932-.253-.308-.618-.465-1.088-.468h-.005c-.736 0-1.021.73-1.05.814a.756.756 0 0 1-.708.5h-.008a.747.747 0 0 1-.704-.508C11.262 9.73 10.978 9 10.24 9Zm5.685 2.543h.01-.01Z"/></svg>
